dist/svg/parking-duo-tone.svg

<svg xmlns="http://www.w3.org/2000/svg" viewBox="0 0 24 24"><path d="M11.34 3.281A8.68 8.68 0 0 0 5.819 5.82c-1.344 1.343-2.192 3.027-2.485 4.94-.096.63-.096 1.85 0 2.48.398 2.594 1.87 4.839 4.07 6.205 1.518.943 3.456 1.42 5.206 1.282 2.156-.17 4.071-1.045 5.57-2.546 1.505-1.508 2.377-3.414 2.547-5.571.214-2.714-.976-5.533-3.073-7.281-1.795-1.495-4.014-2.215-6.314-2.048m1.9 1.579a7.3 7.3 0 0 1 5.358 4.171c.237.526.446 1.194.546 1.749.102.567.103 1.881.001 2.44a7.34 7.34 0 0 1-4.085 5.343 7.26 7.26 0 0 1-6.12 0C5.656 17.016 4 13.266 5.089 9.84c.853-2.686 3.144-4.62 5.951-5.022.502-.072 1.687-.049 2.2.042M9.7 6.314a.75.75 0 0 0-.398.415c-.055.131-.062.738-.062 5.271 0 5.559-.011 5.272.212 5.515.369.401 1.03.272 1.246-.244.053-.128.062-.451.062-2.326v-2.178l1.15-.019c1.2-.019 1.313-.034 1.822-.227.723-.275 1.527-1.091 1.799-1.827.167-.448.208-.688.208-1.194 0-.927-.295-1.643-.945-2.294-.424-.423-.847-.672-1.452-.856-.264-.079-.386-.086-1.882-.098-1.5-.012-1.61-.009-1.76.062m3.24 1.5A1.745 1.745 0 0 1 14.239 9.5c0 .781-.507 1.45-1.274 1.683-.138.042-.444.056-1.195.057h-1.01V7.76h.99c.698.001 1.049.017 1.19.054"/></svg>

<svg fill="none" xmlns="http://www.w3.org/2000/svg" viewBox="0 0 24 24"><path d="M11.340 3.281 C 9.259 3.432,7.316 4.326,5.819 5.820 C 4.475 7.163,3.627 8.847,3.334 10.760 C 3.238 11.390,3.238 12.610,3.334 13.240 C 3.732 15.834,5.204 18.079,7.404 19.445 C 8.922 20.388,10.860 20.865,12.610 20.727 C 14.766 20.557,16.681 19.682,18.180 18.181 C 19.685 16.673,20.557 14.767,20.727 12.610 C 20.941 9.896,19.751 7.077,17.654 5.329 C 15.859 3.834,13.640 3.114,11.340 3.281 M13.240 4.860 C 15.602 5.284,17.613 6.850,18.598 9.031 C 18.835 9.557,19.044 10.225,19.144 10.780 C 19.246 11.347,19.247 12.661,19.145 13.220 C 18.715 15.574,17.200 17.555,15.060 18.563 C 13.144 19.465,10.856 19.465,8.940 18.563 C 5.656 17.016,4.000 13.266,5.089 9.840 C 5.942 7.154,8.233 5.220,11.040 4.818 C 11.542 4.746,12.727 4.769,13.240 4.860 M9.700 6.314 C 9.506 6.406,9.384 6.532,9.302 6.729 C 9.247 6.860,9.240 7.467,9.240 12.000 C 9.240 17.559,9.229 17.272,9.452 17.515 C 9.821 17.916,10.482 17.787,10.698 17.271 C 10.751 17.143,10.760 16.820,10.760 14.945 L 10.760 12.767 11.910 12.748 C 13.110 12.729,13.223 12.714,13.732 12.521 C 14.455 12.246,15.259 11.430,15.531 10.694 C 15.698 10.246,15.739 10.006,15.739 9.500 C 15.739 8.573,15.444 7.857,14.794 7.206 C 14.370 6.783,13.947 6.534,13.342 6.350 C 13.078 6.271,12.956 6.264,11.460 6.252 C 9.960 6.240,9.850 6.243,9.700 6.314 M12.940 7.814 C 13.708 8.020,14.239 8.709,14.239 9.500 C 14.239 10.281,13.732 10.950,12.965 11.183 C 12.827 11.225,12.521 11.239,11.770 11.240 L 10.760 11.240 10.760 9.500 L 10.760 7.760 11.750 7.760 C 12.448 7.761,12.799 7.777,12.940 7.814 " stroke="none" fill-rule="evenodd"/></svg>
